svgs/thin/money-bill.svg

<svg xmlns="http://www.w3.org/2000/svg" viewBox="0 0 576 512"><!--! Font Awesome Pro 6.4.0 by @fontawesome - https://fontawesome.com License - https://fontawesome.com/license (Commercial License) Copyright 2023 Fonticons, Inc. --><path d="M64 80c-26.5 0-48 21.5-48 48V384c0 26.5 21.5 48 48 48H512c26.5 0 48-21.5 48-48V128c0-26.5-21.5-48-48-48H64zM0 128C0 92.7 28.7 64 64 64H512c35.3 0 64 28.7 64 64V384c0 35.3-28.7 64-64 64H64c-35.3 0-64-28.7-64-64V128zm536 56h-8c-39.8 0-72-32.2-72-72v-8c0-4.4 3.6-8 8-8s8 3.6 8 8v8c0 30.9 25.1 56 56 56h8c4.4 0 8 3.6 8 8s-3.6 8-8 8zM32 176c0-4.4 3.6-8 8-8h8c30.9 0 56-25.1 56-56v-8c0-4.4 3.6-8 8-8s8 3.6 8 8v8c0 39.8-32.2 72-72 72H40c-4.4 0-8-3.6-8-8zM536 328c4.4 0 8 3.6 8 8s-3.6 8-8 8h-8c-30.9 0-56 25.1-56 56v8c0 4.4-3.6 8-8 8s-8-3.6-8-8v-8c0-39.8 32.2-72 72-72h8zM32 336c0-4.4 3.6-8 8-8h8c39.8 0 72 32.2 72 72v8c0 4.4-3.6 8-8 8s-8-3.6-8-8v-8c0-30.9-25.1-56-56-56H40c-4.4 0-8-3.6-8-8zm336-80a80 80 0 1 0 -160 0 80 80 0 1 0 160 0zm-176 0a96 96 0 1 1 192 0 96 96 0 1 1 -192 0z"/></svg>

<svg xmlns="http://www.w3.org/2000/svg" viewBox="0 0 576 512"><!--! Font Awesome Pro 6.3.0 by @fontawesome - https://fontawesome.com License - https://fontawesome.com/license (Commercial License) Copyright 2023 Fonticons, Inc. --><path d="M528 184C488.2 184 456 151.8 456 112V104C456 99.58 459.6 96 464 96C468.4 96 472 99.58 472 104V112C472 142.9 497.1 168 528 168H536C540.4 168 544 171.6 544 176C544 180.4 540.4 184 536 184H528zM40 168H48C78.93 168 104 142.9 104 112V104C104 99.58 107.6 96 112 96C116.4 96 120 99.58 120 104V112C120 151.8 87.76 184 48 184H40C35.58 184 32 180.4 32 176C32 171.6 35.58 168 40 168zM536 328C540.4 328 544 331.6 544 336C544 340.4 540.4 344 536 344H528C497.1 344 472 369.1 472 400V408C472 412.4 468.4 416 464 416C459.6 416 456 412.4 456 408V400C456 360.2 488.2 328 528 328H536zM32 336C32 331.6 35.58 328 40 328H48C87.76 328 120 360.2 120 400V408C120 412.4 116.4 416 112 416C107.6 416 104 412.4 104 408V400C104 369.1 78.93 344 48 344H40C35.58 344 32 340.4 32 336zM384 256C384 309 341 352 288 352C234.1 352 192 309 192 256C192 202.1 234.1 160 288 160C341 160 384 202.1 384 256zM288 176C243.8 176 208 211.8 208 256C208 300.2 243.8 336 288 336C332.2 336 368 300.2 368 256C368 211.8 332.2 176 288 176zM0 128C0 92.65 28.65 64 64 64H512C547.3 64 576 92.65 576 128V384C576 419.3 547.3 448 512 448H64C28.65 448 0 419.3 0 384V128zM16 128V384C16 410.5 37.49 432 64 432H512C538.5 432 560 410.5 560 384V128C560 101.5 538.5 80 512 80H64C37.49 80 16 101.5 16 128z"/></svg>
